X:119
T: Einst saá ich auf grner Heide (1-45), S. 114f
N: K1093
O: Luxemburg
S: KINTZELE, Guillaume: An der Ucht, Bd. 1, Luxemburg 1926]
N: in der Quelle mit einer 2. Stimme versehen
R: Traum, Beischlaf]
M: 4/4
L: 1/8
K: F
CF | F2F2AGFG | A2G2z
FEF | G2G2AGFG | A2c2A2
cc | G3AGGFD | C4z2
C2 | B3AGF2F | A2F2z2
c2 | c2AcdcBA | B2G2z2
d2 | cAFAA2G2 | F4z2
c2 | c2AcdcBA | B2G2z2
d2 | cAFGA2G2 | F4z2

